!!!OTL: WER SINGET IM WALDE SO HEIMLICH ALLEIN
!!!ARE: Europa, Mitteleuropa, Deutschland
!!!SCT: B0159
!!!YEM: Copyright 1995, estate of Helmut Schaffrath.
**kern
*ICvox
*Ivox
*M4/4
*k[f#]
*e:
{4e
=1
2e
4e
4e
=2
2gn
4f#
4e
=3
2gn
4f#
4e
=4
2b}
{4e
4f#
=5
4gn
4f#
4gn
4e
=6
2b}
{4e
4f#
=7
4gn
4f#
4gn
4e
=8
2b}
{4gn
4a
=9
2b
2b
=10
2b
4ccn
4b
=11
4b
4a
4a
4a
=12
2a}
{4f#
4gn
=13
4a
4a
4a
4a
=14
4a
4ddn
4ddn
4ccn
=15
4b
4gn
4gn
4gn
=16
2gn}
{2a
=17
4b
4b
4b
4b
=18
4b
4b
4b
4b
=19
4ddn
4ccn
4b
4a
=20
2b}
{2b
=21
4b
4b
4b
4b
=22
4b
4b
4b
4b
=23
2b
2a
=24
2gn
2f#
=25
2.e}
==
!!!AGN: Ballade, Romanze
!!!ONB: ESAC (Essen Associative Code) Database: BOEHME
!!!AMT: simple quadruple
!!!AIN: vox
!!!EED: Helmut Schaffrath
!!!EEV: 1.0
*-
